svg/remove-certificate.svg

<?xml version="1.0" encoding="UTF-8"?>
<svg xmlns="http://www.w3.org/2000/svg" xmlns:xlink="http://www.w3.org/1999/xlink" width="32" height="32" viewBox="0 0 32 32">
<defs>
<clipPath id="clip-0">
<path clip-rule="nonzero" d="M 5 0.625 L 27 0.625 L 27 31.375 L 5 31.375 Z M 5 0.625 "/>
</clipPath>
<clipPath id="clip-1">
<path clip-rule="nonzero" d="M 0 32 L 0 0 L 32 0 L 32 32 Z M 7.550781 11.519531 C 7.550781 16.167969 11.355469 19.96875 16 19.96875 C 20.644531 19.96875 24.449219 16.167969 24.449219 11.519531 C 24.449219 6.875 20.644531 3.070312 16 3.070312 C 11.355469 3.070312 7.550781 6.875 7.550781 11.519531 "/>
</clipPath>
</defs>
<g clip-path="url(#clip-0)">
<g clip-path="url(#clip-1)">
<path fill-rule="nonzero" fill="rgb(0%, 0%, 0%)" fill-opacity="1" d="M 13.761719 0.640625 C 12.851562 0.648438 12.007812 1.128906 11.539062 1.910156 L 11.367188 2.191406 C 11.128906 2.589844 10.703125 2.835938 10.238281 2.84375 L 9.910156 2.851562 C 8.496094 2.878906 7.355469 4.015625 7.332031 5.429688 L 7.324219 5.757812 C 7.316406 6.222656 7.070312 6.648438 6.671875 6.890625 L 6.390625 7.058594 C 5.179688 7.789062 4.765625 9.34375 5.449219 10.582031 L 5.605469 10.867188 C 5.832031 11.273438 5.832031 11.765625 5.605469 12.171875 L 5.449219 12.457031 C 4.765625 13.695312 5.179688 15.253906 6.390625 15.984375 L 6.671875 16.152344 C 7.070312 16.390625 7.316406 16.816406 7.324219 17.28125 L 7.332031 17.609375 C 7.355469 19.023438 8.496094 20.164062 9.910156 20.1875 L 10.238281 20.195312 C 10.703125 20.203125 11.128906 20.449219 11.367188 20.847656 L 11.539062 21.128906 C 12.265625 22.339844 13.824219 22.757812 15.058594 22.074219 L 15.347656 21.914062 C 15.753906 21.6875 16.246094 21.6875 16.652344 21.914062 L 16.941406 22.070312 C 18.175781 22.753906 19.730469 22.339844 20.460938 21.128906 L 20.632812 20.847656 C 20.871094 20.449219 21.296875 20.203125 21.761719 20.195312 L 22.089844 20.191406 C 23.503906 20.164062 24.640625 19.023438 24.667969 17.609375 L 24.675781 17.28125 C 24.683594 16.816406 24.929688 16.390625 25.328125 16.152344 L 25.609375 15.984375 C 26.820312 15.253906 27.234375 13.699219 26.550781 12.460938 L 26.394531 12.171875 C 26.167969 11.765625 26.167969 11.273438 26.394531 10.867188 L 26.550781 10.582031 C 27.234375 9.34375 26.820312 7.789062 25.609375 7.058594 L 25.328125 6.890625 C 24.929688 6.652344 24.683594 6.222656 24.675781 5.757812 L 24.667969 5.429688 C 24.640625 4.015625 23.503906 2.878906 22.089844 2.851562 L 21.761719 2.84375 C 21.296875 2.835938 20.871094 2.589844 20.632812 2.191406 L 20.460938 1.914062 C 19.734375 0.703125 18.175781 0.285156 16.941406 0.96875 L 16.652344 1.125 C 16.246094 1.351562 15.753906 1.351562 15.347656 1.125 L 15.058594 0.96875 C 14.660156 0.75 14.214844 0.636719 13.761719 0.640625 M 23.433594 21.210938 C 23.011719 21.371094 22.566406 21.460938 22.117188 21.46875 L 21.789062 21.476562 C 21.765625 21.476562 21.742188 21.492188 21.726562 21.511719 L 21.554688 21.792969 C 20.925781 22.839844 19.839844 23.53125 18.625 23.65625 L 18.441406 24.074219 L 16.71875 28.015625 L 18.011719 30.976562 C 18.101562 31.179688 18.292969 31.324219 18.515625 31.351562 C 18.738281 31.382812 18.957031 31.292969 19.097656 31.121094 L 21.46875 28.160156 L 25.640625 28.160156 C 25.863281 28.160156 26.066406 28.046875 26.183594 27.863281 C 26.300781 27.679688 26.316406 27.445312 26.222656 27.25 Z M 8.601562 21.222656 L 5.820312 27.25 C 5.726562 27.449219 5.742188 27.679688 5.859375 27.863281 C 5.976562 28.046875 6.179688 28.160156 6.398438 28.160156 L 10.574219 28.160156 L 12.941406 31.121094 C 13.078125 31.296875 13.300781 31.386719 13.523438 31.355469 C 13.746094 31.324219 13.9375 31.183594 14.027344 30.976562 L 17.269531 23.5625 C 16.941406 23.480469 16.621094 23.355469 16.324219 23.195312 L 16.035156 23.039062 C 16.023438 23.03125 16.011719 23.027344 16 23.027344 C 15.988281 23.027344 15.976562 23.03125 15.964844 23.039062 L 15.675781 23.195312 C 15.097656 23.511719 14.449219 23.679688 13.789062 23.683594 C 12.417969 23.6875 11.148438 22.96875 10.445312 21.792969 L 10.273438 21.511719 C 10.261719 21.488281 10.238281 21.476562 10.210938 21.476562 L 9.882812 21.46875 C 9.445312 21.460938 9.011719 21.375 8.601562 21.222656 "/>
</g>
</g>
<path fill-rule="nonzero" fill="rgb(0%, 0%, 0%)" fill-opacity="1" d="M 16 4.480469 C 12.128906 4.480469 8.960938 7.648438 8.960938 11.519531 C 8.960938 15.390625 12.128906 18.558594 16 18.558594 C 19.871094 18.558594 23.039062 15.390625 23.039062 11.519531 C 23.039062 7.648438 19.871094 4.480469 16 4.480469 M 19.449219 12.222656 L 12.550781 12.222656 C 12.128906 12.222656 11.847656 11.941406 11.847656 11.519531 C 11.847656 11.097656 12.128906 10.816406 12.550781 10.816406 L 19.519531 10.816406 C 19.941406 10.816406 20.222656 11.097656 20.222656 11.519531 C 20.222656 11.941406 19.871094 12.222656 19.449219 12.222656 "/>
</svg>

<svg role="img" viewBox="0 0 32 32" height="32" width="32" xmlns="http://www.w3.org/2000/svg"><defs><clipPath id="322__320__204__202__453__451__93__91__94__92__459__457__88__86__62__60__14__12__450__448__remove-certificate_svg__svg/remove-certificate.svg185__svg/remove-certificate.svg181__clip-0"><path d="M5 .625h22v30.75H5Zm0 0"/></clipPath><clipPath id="323__321__205__203__454__452__94__92__95__93__460__458__89__87__63__61__15__13__451__449__remove-certificate_svg__svg/remove-certificate.svg187__svg/remove-certificate.svg183__clip-1"><path d="M0 32V0h32v32Zm7.55-20.48c0 4.648 3.805 8.449 8.45 8.449s8.45-3.801 8.45-8.45c0-4.644-3.805-8.449-8.45-8.449s-8.45 3.805-8.45 8.45"/></clipPath></defs><g clip-path="url(#322__320__204__202__453__451__93__91__94__92__459__457__88__86__62__60__14__12__450__448__remove-certificate_svg__svg/remove-certificate.svg185__svg/remove-certificate.svg181__clip-0)"><g clip-path="url(#323__321__205__203__454__452__94__92__95__93__460__458__89__87__63__61__15__13__451__449__remove-certificate_svg__svg/remove-certificate.svg187__svg/remove-certificate.svg183__clip-1)"><path d="M13.762.64a2.62 2.62 0 0 0-2.223 1.27l-.172.281a1.34 1.34 0 0 1-1.129.653l-.328.008A2.625 2.625 0 0 0 7.332 5.43l-.008.328c-.008.465-.254.89-.652 1.133l-.281.168a2.628 2.628 0 0 0-.942 3.523l.156.285c.227.406.227.899 0 1.305l-.156.285a2.633 2.633 0 0 0 .942 3.527l.28.168c.4.239.645.664.653 1.13l.008.327a2.622 2.622 0 0 0 2.578 2.578l.328.008c.465.008.89.254 1.13.653l.171.28a2.625 2.625 0 0 0 3.52.946l.289-.16a1.337 1.337 0 0 1 1.304 0l.29.156a2.624 2.624 0 0 0 3.519-.941l.172-.281a1.34 1.34 0 0 1 1.129-.653l.328-.004a2.63 2.63 0 0 0 2.578-2.582l.008-.328a1.34 1.34 0 0 1 .652-1.129l.281-.168a2.628 2.628 0 0 0 .942-3.523l-.156-.29a1.337 1.337 0 0 1 0-1.304l.156-.285a2.628 2.628 0 0 0-.942-3.523l-.28-.168a1.346 1.346 0 0 1-.653-1.133l-.008-.328a2.627 2.627 0 0 0-2.578-2.578l-.328-.008a1.34 1.34 0 0 1-1.13-.653l-.171-.277A2.625 2.625 0 0 0 16.94.97l-.289.156a1.337 1.337 0 0 1-1.304 0l-.29-.156a2.645 2.645 0 0 0-1.294-.33m9.672 20.57c-.422.16-.868.25-1.317.258l-.328.008c-.023 0-.047.015-.062.035l-.172.281a3.883 3.883 0 0 1-2.93 1.863l-.184.418-1.722 3.942 1.293 2.96c.09.204.281.348.504.376a.637.637 0 0 0 .582-.23l2.37-2.962h4.173a.648.648 0 0 0 .543-.297.635.635 0 0 0 .039-.613Zm-14.832.012L5.82 27.25a.641.641 0 0 0 .578.91h4.176l2.367 2.961c.137.176.36.266.582.234a.643.643 0 0 0 .504-.378l3.243-7.414a4.09 4.09 0 0 1-.946-.368l-.289-.156a.063.063 0 0 0-.035-.012.063.063 0 0 0-.035.012l-.29.156a3.98 3.98 0 0 1-1.886.489 3.882 3.882 0 0 1-3.344-1.891l-.172-.281c-.011-.024-.035-.035-.062-.035l-.328-.008a3.885 3.885 0 0 1-1.281-.246"/></g></g><path d="M16 4.48c-3.871 0-7.04 3.168-7.04 7.04 0 3.87 3.169 7.039 7.04 7.039s7.04-3.168 7.04-7.04c0-3.87-3.169-7.039-7.04-7.039m3.45 7.743h-6.9c-.421 0-.702-.282-.702-.703 0-.422.28-.704.703-.704h6.969c.421 0 .703.282.703.704 0 .421-.352.703-.774.703"/></svg>
